X:151
T:La grande traversée
M:2/4
L:1/16
K:D
A A2G2 |: F3d dcde | d2A2F2A2 | G3d dcde | d2B2G2B2 |
A3e edef | e2c2 B2A2 |1 d2(3FAd fedc | B2A2 {B}A2G2 :|2 d2AA BAFA | d6ed |:
cecA EAce | d2B2 B4 | EBBB ddBd | ffed c2ed |
cecA EAce | d2B2 B4 | EBBB ddBd | fece a2ed :|
